SVG_Azure_Grouped/Application/App Service Authentication.svg

<?xml version="1.0" encoding="UTF-8" standalone="no"?>
<!-- Generated by Microsoft Visio, SVG Export App Service Authentication.svg Page-1 -->

<svg
   xmlns:dc="http://purl.org/dc/elements/1.1/"
   xmlns:cc="http://creativecommons.org/ns#"
   xmlns:rdf="http://www.w3.org/1999/02/22-rdf-syntax-ns#"
   xmlns:svg="http://www.w3.org/2000/svg"
   xmlns="http://www.w3.org/2000/svg"
   xmlns:sodipodi="http://sodipodi.sourceforge.net/DTD/sodipodi-0.dtd"
   xmlns:inkscape="http://www.inkscape.org/namespaces/inkscape"
   width="0.78779221in"
   height="0.78738862in"
   viewBox="0 0 56.72093 56.692291"
   xml:space="preserve"
   class="st6"
   version="1.1"
   id="svg65"
   sodipodi:docname="App Service Authentication.svg"
   style="font-size:12px;overflow:visible;color-interpolation-filters:sRGB;fill:none;fill-rule:evenodd;stroke-linecap:square;stroke-miterlimit:3"
   inkscape:version="0.92.5 (2060ec1f9f, 2020-04-08)"><metadata
   id="metadata69"><rdf:RDF><cc:Work
       rdf:about=""><dc:format>image/svg+xml</dc:format><dc:type
         rdf:resource="http://purl.org/dc/dcmitype/StillImage" /></cc:Work></rdf:RDF></metadata><sodipodi:namedview
   pagecolor="#ffffff"
   bordercolor="#666666"
   borderopacity="1"
   objecttolerance="10"
   gridtolerance="10"
   guidetolerance="10"
   inkscape:pageopacity="0"
   inkscape:pageshadow="2"
   inkscape:window-width="640"
   inkscape:window-height="480"
   id="namedview67"
   showgrid="false"
   inkscape:zoom="1.4193119"
   inkscape:cx="37.809316"
   inkscape:cy="37.783375"
   inkscape:window-x="0"
   inkscape:window-y="0"
   inkscape:window-maximized="0"
   inkscape:current-layer="svg65" />
	<style
   type="text/css"
   id="style2">
	<![CDATA[
		.st1 {fill:url(#grad0-6);stroke:none;stroke-linecap:butt;stroke-width:34}
		.st2 {fill:#ffffff;fill-opacity:0.8;stroke:none;stroke-linecap:butt;stroke-width:34}
		.st3 {fill:url(#grad0-12);stroke:none;stroke-linecap:butt;stroke-width:34}
		.st4 {fill:url(#grad1-16);stroke:none;stroke-linecap:butt;stroke-width:34}
		.st5 {fill:#ff9300;fill-opacity:0.75;stroke:none;stroke-linecap:butt;stroke-width:34}
		.st6 {fill:none;fill-rule:evenodd;font-size:12px;overflow:visible;stroke-linecap:square;stroke-miterlimit:3}
	]]>
	</style>

	<defs
   id="Patterns_And_Gradients">
		<linearGradient
   id="grad0-6"
   x1="-0.017789046"
   y1="119.00712"
   x2="38.996577"
   y2="119.00712"
   gradientTransform="scale(1.2671116,0.78919648)"
   gradientUnits="userSpaceOnUse">
			<stop
   offset="0.22"
   stop-color="#32d4f5"
   stop-opacity="1"
   id="stop4" />
			<stop
   offset="1"
   stop-color="#198ab3"
   stop-opacity="1"
   id="stop6" />
		</linearGradient>
		<linearGradient
   id="grad0-12"
   x1="0"
   y1="95.042569"
   x2="28.102363"
   y2="95.042569"
   gradientTransform="scale(0.98746145,1.0126978)"
   gradientUnits="userSpaceOnUse">
			<stop
   offset="0.22"
   stop-color="#32d4f5"
   stop-opacity="1"
   id="stop9" />
			<stop
   offset="1"
   stop-color="#198ab3"
   stop-opacity="1"
   id="stop11" />
		</linearGradient>
		<radialGradient
   id="grad1-16"
   cx="26.098483"
   cy="97.741348"
   r="36.530704"
   gradientTransform="scale(0.78376237,1.2758969)"
   fx="26.098483"
   fy="97.741348"
   gradientUnits="userSpaceOnUse">
			<stop
   offset="0.27"
   stop-color="#ffd70f"
   stop-opacity="1"
   id="stop14" />
			<stop
   offset="1"
   stop-color="#fea11b"
   stop-opacity="1"
   id="stop16" />
		</radialGradient>
	</defs>
	<g
   id="g63"
   transform="translate(-34.001319,-33.999896)">
		<title
   id="title20">Page-1</title>
		<g
   id="group14766-1"
   transform="translate(34.0234,-34.0157)">
			<title
   id="title22">App Service Authentication.14766</title>
			<g
   id="group14767-2">
				<title
   id="title24">Sheet.14767</title>
				<g
   id="shape14768-3"
   transform="translate(0,-0.856276)">
					<title
   id="title26">Sheet.14768</title>
					<path
   d="m 44.99,124.71 a 4.41628,4.52912 -180 0 0 4.41,-4.5 2.66954,2.73775 -180 0 0 0,-0.54 C 47.66,105.48 39.78,93.92 24.72,93.92 9.66,93.92 1.52,103.72 0,119.71 a 4.41628,4.52912 -180 0 0 3.92,4.96 h 41.07 z"
   class="st1"
   id="path28"
   inkscape:connector-curvature="0"
   style="fill:url(#grad0-6);stroke:none;stroke-width:34;stroke-linecap:butt" />
				</g>
				<g
   id="shape14769-7"
   transform="translate(17.2367,-10.6243)">
					<title
   id="title31">Sheet.14769</title>
					<path
   d="M 7.48,107.07 A 13.4795,13.824 0 0 1 0,104.8 l 7.42,19.91 7.38,-19.77 a 13.7432,14.0944 0 0 1 -7.32,2.13 z"
   class="st2"
   id="path33"
   inkscape:connector-curvature="0"
   style="fill:#ffffff;fill-opacity:0.8;stroke:none;stroke-width:34;stroke-linecap:butt" />
				</g>
				<g
   id="shape14770-9"
   transform="translate(10.8429,-28.2338)">
					<title
   id="title36">Sheet.14770</title>
					<ellipse
   cx="13.875"
   cy="110.479"
   rx="13.875"
   ry="14.2296"
   class="st3"
   id="ellipse38"
   style="fill:url(#grad0-12);stroke:none;stroke-width:34;stroke-linecap:butt" />
				</g>
				<g
   id="shape14771-13"
   transform="translate(36.2438)">
					<title
   id="title41">Sheet.14771</title>
					<path
   d="m 19.36,104.72 a 3.72417,3.81933 -180 0 0 0,-5.41 l -6.4,-6.76 a 3.69122,3.78553 -180 0 0 -5.27,0 L 1.1,99.11 a 3.75713,3.85313 -180 0 0 0,5.44 l 5.3,5.55 a 1.02168,1.04778 0 0 1 0.3,0.74 v 10.14 a 1.18646,1.21678 -180 0 0 0.4,0.95 l 2.4,2.53 a 0.889847,0.912584 -180 0 0 1.21942,0 l 2.37058,-2.43 1.39,-1.46 a 0.461402,0.473192 -180 0 0 0,-0.67599 L 13.46,118.85 a 0.560274,0.57459 0 0 1 0,-0.77739 L 14.48,117.02 a 0.428445,0.439392 -180 0 0 0,-0.67599 L 13.49,115.3 a 0.560274,0.57459 0 0 1 0,-0.77739 L 14.51,113.48 a 0.461402,0.473192 -180 0 0 0,-0.67599 L 13.13,111.35 v -0.38 z m -9,-10.51 a 2.17518,2.23076 0 0 1 2.11,2.2 2.07631,2.12936 0 0 1 -2.15,2.16 2.14222,2.19696 0 0 1 0,-4.36 z"
   class="st4"
   id="path43"
   inkscape:connector-curvature="0"
   style="fill:url(#grad1-16);stroke:none;stroke-width:34;stroke-linecap:butt" />
				</g>
				<g
   id="shape14772-17"
   transform="translate(44.6901,-3.21796)">
					<title
   id="title46">Sheet.14772</title>
					<path
   d="m 0.13,124.6 a 0.461402,0.473192 -180 0 0 0.790975,-0.33799 L 0.92,115.98 a 0.527316,0.540791 -180 0 0 -0.197744,-0.43939 0.461402,0.473192 -180 0 0 -0.72506,0.40559 L 0,124.26 a 0.428445,0.439392 -180 0 0 0.131829,0.33799 z"
   class="st5"
   id="path48"
   inkscape:connector-curvature="0"
   style="fill:#ff9300;fill-opacity:0.75;stroke:none;stroke-width:34;stroke-linecap:butt" />
				</g>
				<g
   id="shape14773-19"
   transform="rotate(-89.65,14.993093,87.507738)">
					<title
   id="title51">Sheet.14773</title>
					<path
   d="m 0,124.13 a 0.560287,0.574603 -180 0 0 0.560274,0.57459 L 0.69,124.71 a 0.560287,0.574603 -180 0 0 0.560274,-0.57459 L 1.25,114.43 A 0.560287,0.574603 -180 0 0 0.689726,113.85541 L 0.56,113.86 a 0.560287,0.574603 -180 0 0 -0.560274,0.57459 z"
   class="st5"
   id="path53"
   inkscape:connector-curvature="0"
   style="fill:#ff9300;fill-opacity:0.75;stroke:none;stroke-width:34;stroke-linecap:butt" />
				</g>
				<g
   id="shape14774-21"
   transform="rotate(-89.65,16.037504,88.57889)">
					<title
   id="title56">Sheet.14774</title>
					<path
   d="m 0,124.13 a 0.560287,0.574603 -180 0 0 0.560274,0.57459 L 0.69,124.71 a 0.560287,0.574603 -180 0 0 0.560274,-0.57459 L 1.25,114.43 A 0.560287,0.574603 -180 0 0 0.689726,113.85541 L 0.56,113.86 a 0.560287,0.574603 -180 0 0 -0.560274,0.57459 z"
   class="st5"
   id="path58"
   inkscape:connector-curvature="0"
   style="fill:#ff9300;fill-opacity:0.75;stroke:none;stroke-width:34;stroke-linecap:butt" />
				</g>
			</g>
		</g>
	</g>
</svg>

<?xml version="1.0" encoding="UTF-8" standalone="no"?>
<!DOCTYPE svg PUBLIC "-//W3C//DTD SVG 1.1//EN" "http://www.w3.org/Graphics/SVG/1.1/DTD/svg11.dtd">
<!-- Generated by Microsoft Visio, SVG Export App Service Authentication.svg Page-1 -->
<svg xmlns="http://www.w3.org/2000/svg" xmlns:xlink="http://www.w3.org/1999/xlink" xmlns:ev="http://www.w3.org/2001/xml-events"
		width="1.73217in" height="1.73206in" viewBox="0 0 124.716 124.709" xml:space="preserve" color-interpolation-filters="sRGB"
		class="st6">
	<style type="text/css">
	<![CDATA[
		.st1 {fill:url(#grad0-6);stroke:none;stroke-linecap:butt;stroke-width:34}
		.st2 {fill:#ffffff;fill-opacity:0.8;stroke:none;stroke-linecap:butt;stroke-width:34}
		.st3 {fill:url(#grad0-12);stroke:none;stroke-linecap:butt;stroke-width:34}
		.st4 {fill:url(#grad1-16);stroke:none;stroke-linecap:butt;stroke-width:34}
		.st5 {fill:#ff9300;fill-opacity:0.75;stroke:none;stroke-linecap:butt;stroke-width:34}
		.st6 {fill:none;fill-rule:evenodd;font-size:12px;overflow:visible;stroke-linecap:square;stroke-miterlimit:3}
	]]>
	</style>

	<defs id="Patterns_And_Gradients">
		<linearGradient id="grad0-6" x1="0" y1="0" x2="1" y2="0" gradientTransform="rotate(90 0.5 0.5)">
			<stop offset="0.22" stop-color="#32d4f5" stop-opacity="1"/>
			<stop offset="1" stop-color="#198ab3" stop-opacity="1"/>
		</linearGradient>
		<linearGradient id="grad0-12" x1="0" y1="0" x2="1" y2="0" gradientTransform="rotate(85.399904333737 0.5 0.5)">
			<stop offset="0.22" stop-color="#32d4f5" stop-opacity="1"/>
			<stop offset="1" stop-color="#198ab3" stop-opacity="1"/>
		</linearGradient>
		<radialGradient id="grad1-16" cx="1" cy="1" r="1.4">
			<stop offset="0.27" stop-color="#ffd70f" stop-opacity="1"/>
			<stop offset="1" stop-color="#fea11b" stop-opacity="1"/>
		</radialGradient>
	</defs>
	<g>
		<title>Page-1</title>
		<g id="group14409-1" transform="translate(34.0234,-34.0157)">
			<title>App Service Authentication.14409</title>
			<g id="group14410-2">
				<title>Sheet.14410</title>
				<g id="shape14411-3" transform="translate(-2.79776E-13,-0.856276)">
					<title>Sheet.14411</title>
					<path d="M44.99 124.71 A4.41628 4.52912 -180 0 0 49.4 120.21 A2.66954 2.73775 -180 0 0 49.4 119.67 C47.66 105.48
								 39.78 93.92 24.72 93.92 C9.66 93.92 1.52 103.72 0 119.71 A4.41628 4.52912 -180 0 0 3.92 124.67 L44.99
								 124.67 L44.99 124.71 Z" class="st1"/>
				</g>
				<g id="shape14412-7" transform="translate(17.2367,-10.6243)">
					<title>Sheet.14412</title>
					<path d="M7.48 107.07 A13.4795 13.824 0 0 1 0 104.8 L7.42 124.71 L14.8 104.94 A13.7432 14.0944 0 0 1 7.48 107.07
								 Z" class="st2"/>
				</g>
				<g id="shape14413-9" transform="translate(10.8429,-28.2338)">
					<title>Sheet.14413</title>
					<ellipse cx="13.875" cy="110.479" rx="13.875" ry="14.2296" class="st3"/>
				</g>
				<g id="shape14414-13" transform="translate(36.2438,-2.70006E-13)">
					<title>Sheet.14414</title>
					<path d="M19.36 104.72 A3.72417 3.81933 -180 0 0 19.36 99.31 L12.96 92.55 A3.69122 3.78553 -180 0 0 7.69 92.55
								 L1.1 99.11 A3.75713 3.85313 -180 0 0 1.1 104.55 L6.4 110.1 A1.02168 1.04778 0 0 1 6.7 110.84 L6.7
								 120.98 A1.18646 1.21678 -180 0 0 7.1 121.93 L9.5 124.46 a0.889847 0.912584 -180 0 0 1.21942 1.42109E-14
								 L13.09 122.03 L14.48 120.57 a0.461402 0.473192 -180 0 0 1.77636E-15 -0.675988 L13.46 118.85 a0.560274
								 0.57459 0 0 1 -1.59872E-14 -0.777387 L14.48 117.02 a0.428445 0.439392 -180 0 0 8.88178E-15 -0.675988
								 L13.49 115.3 a0.560274 0.57459 0 0 1 -1.06581E-14 -0.777387 L14.51 113.48 a0.461402 0.473192 -180
								 0 0 -3.01981E-14 -0.675988 L13.13 111.35 L13.13 110.97 L19.36 104.72 ZM10.36 94.21 A2.17518 2.23076
								 0 0 1 12.47 96.41 A2.07631 2.12936 0 0 1 10.32 98.57 A2.14222 2.19696 0 0 1 10.32 94.21 L10.36 94.21
								 Z" class="st4"/>
				</g>
				<g id="shape14415-17" transform="translate(44.6901,-3.21796)">
					<title>Sheet.14415</title>
					<path d="M0.13 124.6 a0.461402 0.473192 -180 0 0 0.790975 -0.337994 L0.92 115.98 a0.527316 0.540791 -180 0 0
								 -0.197744 -0.439392 a0.461402 0.473192 -180 0 0 -0.72506 0.405593 L0 124.26 a0.428445 0.439392 -180
								 0 0 0.131829 0.337994 Z" class="st5"/>
				</g>
				<g id="shape14416-19" transform="translate(-72.6046,101.966) rotate(-89.65)">
					<title>Sheet.14416</title>
					<path d="M0 124.13 a0.560287 0.574603 -180 0 0 0.560274 0.57459 L0.69 124.71 a0.560287 0.574603 -180 0 0 0.560274
								 -0.57459 L1.25 114.43 a0.560287 0.574603 -180 0 0 -0.560274 -0.57459 L0.56 113.86 a0.560287 0.574603
								 -180 0 0 -0.560274 0.57459 L0 124.13 Z" class="st5"/>
				</g>
				<g id="shape14417-21" transform="translate(-72.6377,104.075) rotate(-89.65)">
					<title>Sheet.14417</title>
					<path d="M0 124.13 a0.560287 0.574603 -180 0 0 0.560274 0.57459 L0.69 124.71 a0.560287 0.574603 -180 0 0 0.560274
								 -0.57459 L1.25 114.43 a0.560287 0.574603 -180 0 0 -0.560274 -0.57459 L0.56 113.86 a0.560287 0.574603
								 -180 0 0 -0.560274 0.57459 L0 124.13 Z" class="st5"/>
				</g>
			</g>
		</g>
	</g>
</svg>
